X:379
T:Zaplet Kolo
T:AABBBBB
Z:Jack Campin, http://www.campin.me.uk/
F:Jack Campin's Nine-Note Tunebook
% last edit 03-02-2013
M:4/4
L:1/8
Q:1/2=120
K:G
         d2 B2 c2 A2|B2 G2- GcBA|B2 G2- GcBA|Bc d2- dcBA|[M:2/4] B2 G2:|
K:C
|:[M:4/4]G2 E2 F2 D2|E2 C2- CFED|E2 C2- CFED|EF G2- GFED|[M:2/4] E2 C2:|

